X:541
T: GESTERN ABEND IN DER STILLEN RUH
N: E0522A
O: Europa, Mitteleuropa, Deutschland, Hessen, Darmstadt, Dreieichenhain
R: Liebes - Lied
M: 4/4
L: 1/16
K: F
F2G2 | A3AA2A2A4G2A2 | B8z4
B2A2 | G3GG2G2G4F2G2 | A8z8
c3BA2A2c4 | G2G2G2FGA4 | z4
F2G2 | A3AA2A2c4B2A2 | G6
A2c2B2G4 | F4z8

